X:186
T:Doctor Vincent's Delight
C:Charles Bolton, 1983
L:1/8
M:6/8
S:Colin Hume's website,  colinhume.com  - chords can also be printed below the stave.
Q:3/8=120
K:D
P:A
|: "D"D3 d3 | "G"Bcd "A7"AFE | "D"D2d "Bm"Bcd | "Em"e3 "A"A3 |\
"Bm"dfd "A"ecA | "G"BdB "F#m"AFE | "G"D2d "A7"edc | "D"d3-d3 :|
P:B
|: "D"f3 a2f | "A7"e2g "D7"fed | "F#m"f3 a2f | "Em"e3-"A7"ede |\
"D"f3 a2f | "A7"efg "D7"fed | "Bm"f2a "E7"ba^g | "A"a3-a2b |
"C"=c'2c'- c'ba | "G"b2b- bag | "F#m"a2a- agf | "Em"efg "A"cBA |\
"G"B2d "A7"cde | "Bm"d2f "A"efg | "F#m"fga "A7"gfe | "D"d3- d3 :|

